!!!OTL: Cape Cod Chanty
!!!ARE: United States of America; New England
!!!AMD: Pentatonic
**kern
=1-
*clefG2
*k[b-]
*M2/2
*MM144
!! Solo
{4a/
4a/
4cc\
4cc\
=2
4f/
4f/
4c/}
!! Chorus
{8f/L
8a/J
=3
2.cc\
8dd\L
8a\J
=4
2cc\}
4r
!! Solo
{4a/
=5
4a/
4a/
4cc\
4cc\
=6
4f/
4f/
4c/}
!! Chorus
{8f/L
8g/J
=7
4a/
2cc\
4a/
=8
4g/
2f/}
4r
=9
!! Solo
{4.ff\
8ff\
4ff\
4dd\
=10
8cc\L
8dd\J
8cc\L
8a\J
4f/}
!! Chorus
{8f/L
8a/J
=11
2.cc\
8dd\L
8a\J
=12
2.cc\}
4r
=13
!! Solo
{4.ff\
8ff\
4ff\
4dd\
=14
8cc\L
8dd\J
8cc\L
8a\J
4f/}
!! Chorus
{8f/L
8g/J
=15
4a/
2cc\
4a/
=16
4g/
2f/}
4r
==
*-
